X: 2393
T: Balcomie House
R: jig
M: 6/8
K: Gmajor
|:Bc^c|"G"d2d Bdg|"G"d2e dBG|"D"A2A AGA|"G"BcB "D7"ABc|
"G"d2d Bdg|"G"d2e dBG|"D7"DFA cAF|"G"G3:|
|:GFE|"G"D2D B,DG|"C"E2E CEG|"D7"F2F DFA|"G"G2G DGB|
"G"D2D B,DG|"C"E2E CEG|"D7"DFA cAF|"G"G3:|

